X:638
T:Elsie Marley
R:Jig
O:England, Scotland
A:Northumberland
S:Richard Robinson
Z:Transcription:Richard Robinson(?), Chords:Mike Long
M:6/8
L:1/8
K:G
"G"BAB G2G|G2g gdc|BAB G2G|"F"=F2f fcA|\
"G"BAB G2G|g>ag gdB|"C"cac "G"BgB|"F"A2=f fcA:|
|:"G"B2c d2d|def gdc|B2c d2d|"F"ABA =fcA|\
"G"B2c d2d|def gdB|"C"cac "G"BgB|"F"A2=f fcA:|
